Papirus/24x24/panel/workrave-indicator-suspended.svg

<?xml version="1.0" encoding="UTF-8" standalone="no"?>
<svg xmlns:dc="http://purl.org/dc/elements/1.1/" xmlns:cc="http://creativecommons.org/ns#" xmlns:rdf="http://www.w3.org/1999/02/22-rdf-syntax-ns#" xmlns:svg="http://www.w3.org/2000/svg" xmlns="http://www.w3.org/2000/svg" version="1.0" width="24" height="24" id="svg2817">
    <metadata id="metadata57">
        <rdf:RDF>
            <cc:Work rdf:about="">
                <dc:format>
                    image/svg+xml
                </dc:format>
                <dc:type rdf:resource="http://purl.org/dc/dcmitype/StillImage"/>
                <dc:title/>
            </cc:Work>
        </rdf:RDF>
    </metadata>
    <path id="path4350" d="M 4.2230156,2.8062816 2.807,4.2222972 19.777703,21.193 21.193718,19.776985 4.2230156,2.8062816 Z M 12.000359,3.999641 A 4,4 0 0 0 8.6487969,5.8199535 l 1.3515621,1.3515625 0,-0.171875 1,0 0,-1 2,0 0,1 1,0 0,2 -1,0 0,1 -0.171875,0 1.349609,1.349609 a 4,4 0 0 0 1.822266,-3.349609 4,4 0 0 0 -4,-4 z m -0.794922,10.033203 c -7.1831458,0.341425 -7.2050776,5.111328 -7.2050776,5.111328 l 0,0.855469 13.1718746,0 -5.966797,-5.966797 z" style="color:#000000;text-indent:0;text-decoration:none;text-decoration-line:none;text-transform:none;block-progression:tb;opacity:1;fill:#ffffff;fill-opacity:1"/>
    <g transform="translate(-39.548917,-8.213014)" id="g4146" style="fill:none;fill-opacity:1">
        <path d="m 30.565,21.238 1.414,1.414 -1.793,1.793 5.172,0 0,2 -5.172,0 1.793,1.793 -1.414,1.414 -4.207,-4.207 z" style="opacity:1;fill:none;fill-opacity:1;fill-rule:nonzero;stroke:none" id="path4148"/>
    </g>
    <path id="path4410" d="M 15.414062,15.929688 14,17.34375 16.123047,19.464844 14,21.587891 15.414062,23 17.535156,20.878906 19.658203,23 l 1.412109,-1.412109 -2.121093,-2.123047 2.121093,-2.121094 -1.412109,-1.414062 -2.123047,2.123046 -2.121094,-2.123046 z" style="opacity:0.72000002;fill:none;fill-opacity:1;stroke:none;stroke-width:2;stroke-linecap:round;stroke-linejoin:round;stroke-miterlimit:4;stroke-dasharray:none;stroke-opacity:1"/>
</svg>

<?xml version="1.0" encoding="UTF-8" standalone="no"?>
<svg id="svg2817" xmlns:rdf="http://www.w3.org/1999/02/22-rdf-syntax-ns#" xmlns="http://www.w3.org/2000/svg" height="24" width="24" version="1.0" xmlns:cc="http://creativecommons.org/ns#" xmlns:dc="http://purl.org/dc/elements/1.1/">
 <metadata id="metadata57">
  <rdf:RDF>
   <cc:Work rdf:about="">
    <dc:format>image/svg+xml</dc:format>
    <dc:type rdf:resource="http://purl.org/dc/dcmitype/StillImage"/>
    <dc:title/>
   </cc:Work>
  </rdf:RDF>
 </metadata>
 <path id="path4350" style="color:#000000;block-progression:tb;text-decoration-line:none;text-transform:none;text-indent:0" d="m4.223 2.8063-1.416 1.416 16.971 16.971 1.416-1.416-16.971-16.971zm7.777 1.1933a4 4 0 0 0 -3.3512 1.8204l1.3516 1.3516v-0.17188h1v-1h2v1h1v2h-1v1h-0.17188l1.3496 1.3496a4 4 0 0 0 1.8223 -3.3496 4 4 0 0 0 -4 -4zm-0.79492 10.033c-7.1831 0.34142-7.2051 5.1113-7.2051 5.1113v0.85547h13.172l-5.9668-5.9668z" fill="#fff"/>
 <g id="g4146" fill="none" transform="translate(-39.549 -8.213)">
  <path id="path4148" fill="none" d="m30.565 21.238 1.414 1.414-1.793 1.793h5.172v2h-5.172l1.793 1.793-1.414 1.414-4.207-4.207z"/>
 </g>
 <path id="path4410" opacity="0.72" fill="none" d="m15.414 15.93-1.414 1.414 2.123 2.121-2.123 2.123 1.414 1.412 2.121-2.121 2.123 2.121l1.4121-1.4121-2.1211-2.123 2.1211-2.1211-1.4121-1.4141-2.123 2.123-2.1211-2.123z"/>
</svg>
